X: 14185
T: Frost Is All Over, The
R: jig
M: 6/8
K: Dmajor
A|:dgf edc|dAF BGE|DFA {d}BA^G|Agf ecA|
dgf edc|dAF BGE|DFA {d}BA^G|1 ABc d2(A:|2 ABc dge||
|:fdf {b}afd|{ga}gfg bag|fdf {b}afd|{g}fe^d efg|
fdf {b}afd|~g3 bag|fga efg|1 fdc dge:|2 fdc def||

